dist/assets/images/framed.svg

<?xml version="1.0" encoding="UTF-8" standalone="no"?>
<svg width="256px" height="266px" viewBox="0 0 256 266" version="1.1" xmlns="http://www.w3.org/2000/svg" xmlns:xlink="http://www.w3.org/1999/xlink">
    <defs></defs>
    <g stroke="none" stroke-width="1" fill="none" fill-rule="evenodd">
        <g fill="#D35052">
            <path d="M28.7582762,265.429569 C13.4209061,265.429569 0.943381215,252.952044 0.943381215,237.61326 C0.943381215,222.274475 13.4209061,209.79695 28.7582762,209.79695 C44.0970608,209.79695 56.5745856,222.274475 56.5745856,237.61326 C56.5745856,252.952044 44.0970608,265.429569 28.7582762,265.429569 L28.7582762,265.429569 Z M28.7582762,221.111867 C19.6596685,221.111867 12.2582983,228.513238 12.2582983,237.61326 C12.2582983,246.713282 19.6596685,254.114652 28.7582762,254.114652 C37.8582983,254.114652 45.2596685,246.713282 45.2596685,237.61326 C45.2596685,228.513238 37.8582983,221.111867 28.7582762,221.111867 L28.7582762,221.111867 Z"></path>
            <path d="M128.707182,0 C113.369812,0 100.890873,12.4775249 100.890873,27.8163094 C100.890873,36.409989 104.811492,44.1027182 110.954077,49.2085746 L44.4534807,180.844906 C43.0447735,183.634033 44.1635359,187.036994 46.9512486,188.445702 C47.7701657,188.858696 48.64,189.055293 49.4985193,189.055293 C51.5649061,189.055293 53.5563315,187.918144 54.5520442,185.947934 L120.953635,54.5110276 C123.417459,55.2281105 126.014232,55.6326188 128.707182,55.6326188 C144.044552,55.6326188 156.523492,43.1536796 156.523492,27.8163094 C156.523492,12.4775249 144.044552,0 128.707182,0 L128.707182,0 Z M128.707182,44.3177017 C119.608575,44.3177017 112.20579,36.9149171 112.20579,27.8163094 C112.20579,18.7162873 119.608575,11.3149171 128.707182,11.3149171 C137.80579,11.3149171 145.208575,18.7162873 145.208575,27.8163094 C145.208575,36.9149171 137.80579,44.3177017 128.707182,44.3177017 L128.707182,44.3177017 Z"></path>
            <path d="M228.183691,209.325967 C225.478011,209.325967 222.868508,209.73189 220.39337,210.456044 L152.11916,78.4915801 C150.68358,75.7151823 147.269304,74.6303646 144.49432,76.0659448 C141.719337,77.5015249 140.633105,80.9143867 142.068685,83.6893702 L210.403713,215.772641 C208.623028,217.257724 207.047425,218.974762 205.682564,220.854453 L127.717127,183.706166 L76.6939227,208.969547 C73.8934807,210.355624 72.7478453,213.750099 74.1339227,216.550541 C75.52,219.350983 78.9144751,220.495204 81.7149171,219.110541 L127.81189,196.285525 L201.029304,231.172243 C200.606409,233.097193 200.368796,235.091448 200.368796,237.142276 C200.368796,252.479646 212.84632,264.958586 228.183691,264.958586 C243.522475,264.958586 256,252.479646 256,237.142276 C256,221.803492 243.522475,209.325967 228.183691,209.325967 L228.183691,209.325967 Z M228.183691,253.643669 C219.085083,253.643669 211.683713,246.240884 211.683713,237.142276 C211.683713,228.042254 219.085083,220.640884 228.183691,220.640884 C237.283713,220.640884 244.685083,228.042254 244.685083,237.142276 C244.685083,246.240884 237.283713,253.643669 228.183691,253.643669 L228.183691,253.643669 Z"></path>
        </g>
    </g>
</svg>

<svg width="256" height="266" xmlns="http://www.w3.org/2000/svg"><path d="M28.758 265.43c-15.337 0-27.815-12.478-27.815-27.817s12.478-27.816 27.815-27.816c15.34 0 27.817 12.477 27.817 27.816 0 15.339-12.478 27.817-27.817 27.817zm0-44.318c-9.098 0-16.5 7.401-16.5 16.501 0 9.1 7.402 16.502 16.5 16.502 9.1 0 16.502-7.402 16.502-16.502 0-9.1-7.402-16.501-16.502-16.501zM128.707 0c-15.337 0-27.816 12.478-27.816 27.816 0 8.594 3.92 16.287 10.063 21.393l-66.5 131.636a5.658 5.658 0 0010.098 5.103L120.954 54.51a27.689 27.689 0 007.753 1.122c15.338 0 27.816-12.48 27.816-27.817S144.045 0 128.707 0zm0 44.318c-9.098 0-16.501-7.403-16.501-16.502 0-9.1 7.403-16.501 16.501-16.501 9.099 0 16.502 7.401 16.502 16.501 0 9.099-7.403 16.502-16.502 16.502zm99.477 165.008c-2.706 0-5.315.406-7.79 1.13L152.118 78.492a5.657 5.657 0 10-10.05 5.197l68.335 132.084a28.086 28.086 0 00-4.721 5.081l-77.966-37.148-51.023 25.264a5.658 5.658 0 005.02 10.14l46.098-22.824 73.217 34.886a27.777 27.777 0 00-.66 5.97c0 15.338 12.477 27.817 27.815 27.817 15.338 0 27.816-12.48 27.816-27.817 0-15.339-12.478-27.816-27.816-27.816zm0 44.318c-9.099 0-16.5-7.403-16.5-16.502 0-9.1 7.401-16.501 16.5-16.501 9.1 0 16.501 7.401 16.501 16.501 0 9.099-7.401 16.502-16.501 16.502z" fill="#D35052" fill-rule="evenodd"/></svg>
